static/assets/template/assets/img/icons/essential/detailed/Safe.svg

<svg height="145" viewBox="0 0 151 145" width="151" xmlns="http://www.w3.org/2000/svg"><g fill="none" fill-rule="evenodd" transform="translate(2 1)"><g stroke-linecap="round" stroke-linejoin="round" stroke-width="3" transform="translate(0 141)"><path d="m1.5.7h-1.1"/><path d="m16.1.7h-10.3"/><path d="m21.8.7h-1"/><path d="m109 .7h-81.4"/><path d="m147 .7h-33.4"/></g><path d="m40 141.4h-10.1l-2-6.1h14.1z" fill-rule="nonzero" stroke-linecap="round" stroke-linejoin="round" stroke-width="3"/><path d="m115 141.4h-10.1l-2-6.1h14.1z" fill-rule="nonzero" stroke-linecap="round" stroke-linejoin="round" stroke-width="3"/><path d="m133.4 136.3h-118.4c-4.4 0-7.9-3.5-7.9-7.9v-119.8c0-4.4 3.5-7.9 7.9-7.9h118.4c4.4 0 7.9 3.5 7.9 7.9v119.8c0 4.4-3.5 7.9-7.9 7.9z" fill-rule="nonzero"/><path d="m141.5 17.6v111c0 4.2-3.4 7.7-7.6 7.7h-115c-4.2 0-7.6-3.4-7.6-7.7v-111c0-4.1 3.4-7.4 7.6-7.4h114.9c4.3 0 7.7 3.3 7.7 7.4z" fill="#bad8ff" fill-rule="nonzero"/><path d="m141.5 17.6v100.6c0 4.1-3.4 7.4-7.6 7.4h-115c-4.2 0-7.6-3.3-7.6-7.4v-100.6c0-4.1 3.4-7.4 7.6-7.4h114.9c4.3 0 7.7 3.3 7.7 7.4z" fill-rule="nonzero"/><path d="m45.9.7h87.6c4.3 0 7.9 3.6 7.9 7.9v119.7c0 4.4-3.5 7.9-7.9 7.9h-118.5c-4.3 0-7.9-3.6-7.9-7.9v-119.7c0-4.4 3.5-7.9 7.9-7.9h10.7" stroke-linecap="round" stroke-linejoin="round" stroke-width="3"/><path d="m31.3.7h.9" stroke-linecap="round" stroke-linejoin="round" stroke-width="3"/><path d="m119.5 120.4h-90.6c-3.3 0-6-2.7-6-6v-91.6c0-3.3 2.7-6 6-6h90.6c3.3 0 6 2.7 6 6v91.6c.1 3.3-2.6 6-6 6z" fill-rule="nonzero"/><path d="m119.5 119.5h-90.6c-3.3 0-6-2.7-6-6v-91.6c0-3.3 2.7-6 6-6h90.6c3.3 0 6 2.7 6 6v91.6c.1 3.3-2.6 6-6 6z" fill-rule="nonzero"/><path d="m119.8 120.4h-85c-3.2 0-5.7-2.6-5.7-5.7v-87c0-3.2 2.6-5.7 5.7-5.7h85c3.2 0 5.7 2.6 5.7 5.7v87c.1 3.1-2.5 5.7-5.7 5.7z" fill-rule="nonzero"/><g stroke-linecap="round" stroke-linejoin="round" stroke-width="3"><path d="m100.3 95.2-52.7-52.8"/><path d="m47.6 95.2 52.7-52.8"/><path d="m93.1 120.4h-64.2c-3.3 0-6-2.7-6-6.1v-91.6c0-3.4 2.7-6.1 6-6.1h90.6c3.3 0 6 2.7 6 6.1v2.2"/><path d="m114.3 120.4h-10.3"/><path d="m125.6 29.7v84.6c0 3.4-2.7 6.1-6 6.1h-1.2"/><path d="m121.7 37.8v-8.1h7.3v22.1h-7.3v-1.8" fill-rule="nonzero"/><path d="m121.7 81.2h7.3v22.1h-7.3z" fill-rule="nonzero"/></g><ellipse cx="74.2" cy="68.5" fill-rule="nonzero" rx="18.4" ry="18.6"/><ellipse cx="76.1" cy="70.4" fill-rule="nonzero" rx="16.6" ry="16.8"/><path d="m65.3 52.2c.1-.1.3-.1.4-.2" stroke-linecap="round" stroke-linejoin="round" stroke-width="3"/><path d="m83.4 84.6c-2.7 1.6-5.8 2.5-9.2 2.5-10.2 0-18.4-8.3-18.4-18.6 0-4.7 1.7-9 4.6-12.3" stroke-linecap="round" stroke-linejoin="round" stroke-width="3"/><path d="m68.5 50.8c1.8-.6 3.7-.9 5.8-.9 10.2 0 18.4 8.3 18.4 18.6 0 4.6-1.7 8.9-4.5 12.1" stroke-linecap="round" stroke-linejoin="round" stroke-width="3"/><circle cx="74.2" cy="68.5" fill-rule="nonzero" r="6.9" stroke-linecap="round" stroke-linejoin="round" stroke-width="3"/></g></svg>

<?xml version="1.0" encoding="UTF-8"?>
<svg width="151px" height="145px" viewBox="0 0 151 145" version="1.1" xmlns="http://www.w3.org/2000/svg" xmlns:xlink="http://www.w3.org/1999/xlink">
    <!-- Generator: Sketch 51.2 (57519) - http://www.bohemiancoding.com/sketch -->
    <title>Safe</title>
    <desc>Created with Sketch.</desc>
    <defs></defs>
    <g id="Page-1" stroke="none" stroke-width="1" fill="none" fill-rule="evenodd">
        <g id="Safe" transform="translate(2.000000, 1.000000)">
            <g id="Group" transform="translate(0.000000, 141.000000)" class="stroke-primary-300" stroke-linecap="round" stroke-linejoin="round" stroke-width="3">
                <path d="M1.5,0.7 L0.4,0.7" id="Shape"></path>
                <path d="M16.1,0.7 L5.8,0.7" id="Shape"></path>
                <path d="M21.8,0.7 L20.8,0.7" id="Shape"></path>
                <path d="M109,0.7 L27.6,0.7" id="Shape"></path>
                <path d="M147,0.7 L113.6,0.7" id="Shape"></path>
            </g>
            <polygon id="Shape" stroke-width="3" class="stroke-primary fill-primary-500" fill-rule="nonzero" stroke-linecap="round" stroke-linejoin="round" points="40 141.4 29.9 141.4 27.9 135.3 42 135.3"></polygon>
            <polygon id="Shape" stroke-width="3" class="stroke-primary fill-primary-500" fill-rule="nonzero" stroke-linecap="round" stroke-linejoin="round" points="115 141.4 104.9 141.4 102.9 135.3 117 135.3"></polygon>
            <path d="M133.4,136.3 L15,136.3 C10.6,136.3 7.1,132.8 7.1,128.4 L7.1,8.6 C7.1,4.2 10.6,0.7 15,0.7 L133.4,0.7 C137.8,0.7 141.3,4.2 141.3,8.6 L141.3,128.4 C141.3,132.8 137.8,136.3 133.4,136.3 Z" id="Shape" class="fill-neutral" fill-rule="nonzero"></path>
            <path d="M141.5,17.6 L141.5,128.6 C141.5,132.8 138.1,136.3 133.9,136.3 L18.9,136.3 C14.7,136.3 11.3,132.9 11.3,128.6 L11.3,17.6 C11.3,13.5 14.7,10.2 18.9,10.2 L133.8,10.2 C138.1,10.2 141.5,13.5 141.5,17.6 Z" id="Shape" fill="#BAD8FF" fill-rule="nonzero"></path>
            <path d="M141.5,17.6 L141.5,118.2 C141.5,122.3 138.1,125.6 133.9,125.6 L18.9,125.6 C14.7,125.6 11.3,122.3 11.3,118.2 L11.3,17.6 C11.3,13.5 14.7,10.2 18.9,10.2 L133.8,10.2 C138.1,10.2 141.5,13.5 141.5,17.6 Z" id="Shape" class="fill-primary-100" fill-rule="nonzero"></path>
            <path d="M45.9,0.7 L133.5,0.7 C137.8,0.7 141.4,4.3 141.4,8.6 L141.4,128.3 C141.4,132.7 137.9,136.2 133.5,136.2 L15,136.2 C10.7,136.2 7.1,132.6 7.1,128.3 L7.1,8.6 C7.1,4.2 10.6,0.7 15,0.7 L25.7,0.7" id="Shape" class="stroke-primary" stroke-width="3" stroke-linecap="round" stroke-linejoin="round"></path>
            <path d="M31.3,0.7 L32.2,0.7" id="Shape" class="stroke-primary" stroke-width="3" stroke-linecap="round" stroke-linejoin="round"></path>
            <path d="M119.5,120.4 L28.9,120.4 C25.6,120.4 22.9,117.7 22.9,114.4 L22.9,22.8 C22.9,19.5 25.6,16.8 28.9,16.8 L119.5,16.8 C122.8,16.8 125.5,19.5 125.5,22.8 L125.5,114.4 C125.6,117.7 122.9,120.4 119.5,120.4 Z" id="Shape" class="fill-neutral" fill-rule="nonzero"></path>
            <path d="M119.5,119.5 L28.9,119.5 C25.6,119.5 22.9,116.8 22.9,113.5 L22.9,21.9 C22.9,18.6 25.6,15.9 28.9,15.9 L119.5,15.9 C122.8,15.9 125.5,18.6 125.5,21.9 L125.5,113.5 C125.6,116.8 122.9,119.5 119.5,119.5 Z" id="Shape" class="fill-neutral" fill-rule="nonzero"></path>
            <path d="M119.8,120.4 L34.8,120.4 C31.6,120.4 29.1,117.8 29.1,114.7 L29.1,27.7 C29.1,24.5 31.7,22 34.8,22 L119.8,22 C123,22 125.5,24.6 125.5,27.7 L125.5,114.7 C125.6,117.8 123,120.4 119.8,120.4 Z" id="Shape" class="fill-primary-100" fill-rule="nonzero"></path>
            <path d="M100.3,95.2 L47.6,42.4" id="Shape" class="stroke-primary" stroke-width="3" stroke-linecap="round" stroke-linejoin="round"></path>
            <path d="M47.6,95.2 L100.3,42.4" id="Shape" class="stroke-primary" stroke-width="3" stroke-linecap="round" stroke-linejoin="round"></path>
            <path d="M93.1,120.4 L28.9,120.4 C25.6,120.4 22.9,117.7 22.9,114.3 L22.9,22.7 C22.9,19.3 25.6,16.6 28.9,16.6 L119.5,16.6 C122.8,16.6 125.5,19.3 125.5,22.7 L125.5,24.9" id="Shape" class="stroke-primary" stroke-width="3" stroke-linecap="round" stroke-linejoin="round"></path>
            <path d="M114.3,120.4 L104,120.4" id="Shape" class="stroke-primary" stroke-width="3" stroke-linecap="round" stroke-linejoin="round"></path>
            <path d="M125.6,29.7 L125.6,114.3 C125.6,117.7 122.9,120.4 119.6,120.4 L118.4,120.4" id="Shape" class="stroke-primary" stroke-width="3" stroke-linecap="round" stroke-linejoin="round"></path>
            <polyline id="Shape" stroke-width="3" class="stroke-primary fill-neutral" fill-rule="nonzero" stroke-linecap="round" stroke-linejoin="round" points="121.7 37.8 121.7 29.7 129 29.7 129 51.8 121.7 51.8 121.7 50"></polyline>
            <rect id="Rectangle-path" stroke-width="3" class="stroke-primary fill-neutral" fill-rule="nonzero" stroke-linecap="round" stroke-linejoin="round" x="121.7" y="81.2" width="7.3" height="22.1"></rect>
            <ellipse id="Oval" class="fill-neutral" fill-rule="nonzero" cx="74.2" cy="68.5" rx="18.4" ry="18.6"></ellipse>
            <ellipse id="Oval" class="fill-primary-100" fill-rule="nonzero" cx="76.1" cy="70.4" rx="16.6" ry="16.8"></ellipse>
            <path d="M65.3,52.2 C65.4,52.1 65.6,52.1 65.7,52" id="Shape" class="stroke-primary" stroke-width="3" stroke-linecap="round" stroke-linejoin="round"></path>
            <path d="M83.4,84.6 C80.7,86.2 77.6,87.1 74.2,87.1 C64,87.1 55.8,78.8 55.8,68.5 C55.8,63.8 57.5,59.5 60.4,56.2" id="Shape" class="stroke-primary" stroke-width="3" stroke-linecap="round" stroke-linejoin="round"></path>
            <path d="M68.5,50.8 C70.3,50.2 72.2,49.9 74.3,49.9 C84.5,49.9 92.7,58.2 92.7,68.5 C92.7,73.1 91,77.4 88.2,80.6" id="Shape" class="stroke-primary" stroke-width="3" stroke-linecap="round" stroke-linejoin="round"></path>
            <circle id="Oval" stroke-width="3" class="stroke-primary fill-primary-500" fill-rule="nonzero" stroke-linecap="round" stroke-linejoin="round" cx="74.2" cy="68.5" r="6.9"></circle>
        </g>
    </g>
</svg>
